dist/img/others-label.svg

<svg xmlns="http://www.w3.org/2000/svg" viewBox="0 0 104.78 108.07"><defs><style>.cls-1{fill:#fff}.cls-2{fill:#0f6f13}</style></defs><g id="фигура"><path class="cls-1" d="M94.86 151.85a2.14 2.14 0 01-1.13-.31l-45.09-26.81a2.21 2.21 0 010-3.8l45.09-26.81a2.23 2.23 0 011.13-.31 2.26 2.26 0 011.13.31l45.09 26.81a2.21 2.21 0 010 3.8L96 151.54a2.16 2.16 0 01-1.14.31z" transform="translate(-42.5 -48.79)"/><path class="cls-2" d="M94.86 99.27l39.63 23.56-39.63 23.57-39.63-23.57 39.63-23.56m0-10.46a7.18 7.18 0 00-3.69 1l-45.09 26.83a7.21 7.21 0 000 12.39l45.09 26.81a7.23 7.23 0 007.37 0L143.63 129a7.21 7.21 0 000-12.39L98.54 89.83a7.15 7.15 0 00-3.68-1z" transform="translate(-42.5 -48.79)"/><path class="cls-1" d="M94.86 131.86a2.12 2.12 0 01-1.1-.3l-45.21-26.88a2.15 2.15 0 010-3.69l45.21-26.88a2.12 2.12 0 011.1-.31 2.18 2.18 0 011.1.31l45.2 26.89a2.15 2.15 0 010 3.69L96 131.56a2.17 2.17 0 01-1.14.3z" transform="translate(-42.5 -48.79)"/><path class="cls-2" d="M94.86 79.27l39.63 23.56-39.63 23.57-39.63-23.57 39.63-23.56m0-10.47a7.16 7.16 0 00-3.66 1L46 96.69A7.14 7.14 0 0046 109l45.2 26.88a7.18 7.18 0 007.31 0L143.72 109a7.15 7.15 0 000-12.29l-45.21-26.9a7.13 7.13 0 00-3.65-1z" transform="translate(-42.5 -48.79)"/><path class="cls-1" d="M95 111.82a2.18 2.18 0 01-1.14-.32l-45-26.78a2.24 2.24 0 010-3.84l45-26.78a2.25 2.25 0 012.28 0l45.05 26.78a2.24 2.24 0 010 3.84l-45 26.78a2.18 2.18 0 01-1.19.32z" transform="translate(-42.5 -48.79)"/><path class="cls-2" d="M95 59.24l39.63 23.56L95 106.37 55.37 82.8 95 59.24m0-10.45a7.21 7.21 0 00-3.7 1l-45 26.78a7.23 7.23 0 000 12.44l45 26.78a7.22 7.22 0 007.4 0l45-26.78a7.23 7.23 0 000-12.44l-45-26.77a7.21 7.21 0 00-3.7-1z" transform="translate(-42.5 -48.79)"/></g></svg>

<svg xmlns="http://www.w3.org/2000/svg" viewBox="0 0 104.78 108.07"><defs><style>.cls-1{fill:#fff;}.cls-2{fill:#0f6f13;}</style></defs><g id="фигура"><path class="cls-1" d="M94.86,151.85a2.14,2.14,0,0,1-1.13-.31L48.64,124.73a2.21,2.21,0,0,1,0-3.8L93.73,94.12a2.23,2.23,0,0,1,1.13-.31,2.26,2.26,0,0,1,1.13.31l45.09,26.81a2.21,2.21,0,0,1,0,3.8L96,151.54A2.16,2.16,0,0,1,94.86,151.85Z" transform="translate(-42.5 -48.79)"/><path class="cls-2" d="M94.86,99.27l39.63,23.56L94.86,146.4,55.23,122.83,94.86,99.27m0-10.46a7.18,7.18,0,0,0-3.69,1L46.08,116.64a7.21,7.21,0,0,0,0,12.39l45.09,26.81a7.23,7.23,0,0,0,7.37,0L143.63,129a7.21,7.21,0,0,0,0-12.39L98.54,89.83a7.15,7.15,0,0,0-3.68-1Z" transform="translate(-42.5 -48.79)"/><path class="cls-1" d="M94.86,131.86a2.12,2.12,0,0,1-1.1-.3L48.55,104.68a2.15,2.15,0,0,1,0-3.69L93.76,74.11a2.12,2.12,0,0,1,1.1-.31,2.18,2.18,0,0,1,1.1.31L141.16,101a2.15,2.15,0,0,1,0,3.69L96,131.56A2.17,2.17,0,0,1,94.86,131.86Z" transform="translate(-42.5 -48.79)"/><path class="cls-2" d="M94.86,79.27l39.63,23.56L94.86,126.4,55.23,102.83,94.86,79.27m0-10.47a7.16,7.16,0,0,0-3.66,1L46,96.69A7.14,7.14,0,0,0,46,109l45.2,26.88a7.18,7.18,0,0,0,7.31,0L143.72,109a7.15,7.15,0,0,0,0-12.29L98.51,69.81a7.13,7.13,0,0,0-3.65-1Z" transform="translate(-42.5 -48.79)"/><path class="cls-1" d="M95,111.82a2.18,2.18,0,0,1-1.14-.32l-45-26.78a2.24,2.24,0,0,1,0-3.84L93.86,54.1a2.25,2.25,0,0,1,2.28,0l45.05,26.78a2.24,2.24,0,0,1,0,3.84l-45,26.78A2.18,2.18,0,0,1,95,111.82Z" transform="translate(-42.5 -48.79)"/><path class="cls-2" d="M95,59.24,134.63,82.8,95,106.37,55.37,82.8,95,59.24m0-10.45a7.21,7.21,0,0,0-3.7,1l-45,26.78a7.23,7.23,0,0,0,0,12.44l45,26.78a7.22,7.22,0,0,0,7.4,0l45-26.78a7.23,7.23,0,0,0,0-12.44L98.7,49.8a7.21,7.21,0,0,0-3.7-1Z" transform="translate(-42.5 -48.79)"/></g></svg>
